!! 00000] TT[WS
!!!OTL: Zou NIgong
!!!ARE: Asia, China,ÿShanxi Dingxiang
!! Ethnic Group: Han
!! WI, 156 (1)
!!!SCT: J0187
!!!YEM: Copyright 1995, estate of Helmut Schaffrath.
**kern
*ICvox
*Ivox
*M2/4
*k[b-e-]
*B-:
{4cc
8cc
8cc
=1
8dd
8cc
8dd
8ff
=2
8cc
8b-
8g
8f
=3
2d}
=4
{8dd
8dd
8dd
8cc
=5
8g
8b-
8cc
8dd
=6
8cc
16cc
16g
8f
8d
=7
2f}
==
!!!AGN: Xiaodiao. Qingge
!!!ONB: ESAC (Essen Associative Code) Database: CHINA
!!!AMT: simple duple
!!!AIN: vox
!!!EED: Helmut Schaffrath
!!!EEV: 1.0
*-
